X:1
T:Title
%%score 1 { 2 | 3 }
L:1/8
Q:1/4=95
M:4/4
K:Bb
V:1 treble nm="Grand Piano, Soprano"
V:2 bass nm="Choir Pad, Gathering in the Sheaves"
V:3 bass 
V:1
 [B,D]>[CE] [DF]>[EG] [DF]2 [DB]2 | [Fd]>[Ec] [DB]>[EG] [EG]2 [DF]2 | %2
w: By~J.~M.~Pierce * * * * *||
 [CE]>[=B,D] [CE]>[DF] [CE]2 [Ec]2 | [=Ec]>[EB] [EA]>[EG] F2 _E2 | %4
w: ||
 [B,D]>[CE] [DF]>[EG] [DF]2 [DB]2 | [Fd]>[DB] [Ec]>[Fd] [Ge]2 [EG]2 | %6
w: ||
 [Gc]>[GB] [FA]>[EG] [DF]2 [DB]2 | [Fd]>[DB] [Ec]>[Ec] [DB]4 | [FA]>[FB] [Fc]>[Fd] [Fc]4 | %9
w: |||
 [DB]>[Ec] [Fd]>[Ge] [Fd]4 | [EG]>[EG] [EG]>[EG] [=Ec]2 [EB]2 | [=EA]>[EB] [EA]>[EG] F2 _E2 | %12
w: |||
 [B,D]>[CE] [DF]>[EG] [DF]2 [DB]2 | [Fd]>[DB] [Ec]>[Fd] [Ge]2 [EG]2 | %14
w: ||
 [Gc]>[GB] [FA]>[EG] [DF]2 [DB]2 | [Fd]>[DB] [Ec]>[Ec] [DB]4 |] %16
w: ||
V:2
 F,>F, B,>B, B,2 F,2 | B,>B, B,>B, B,2 B,2 | F,>F, F,>F, A,2 A,2 | G,>G, C>B, A,4 | %4
 F,>F, B,>B, B,2 F,2 | B,>B, B,>B, B,2 B,2 | B,>B, B,>B, B,2 B,2 | B,>B, A,>A, B,4 | %8
 C>B, A,>B, A,4 | B,>B, B,>B, B,4 | B,>B, B,>B, B,2 D2 | B,>B, B,>B, A,4 | F,>F, B,>B, B,2 F,2 | %13
 B,>B, B,>B, B,2 B,2 | B,>B, B,>B, B,2 B,2 | B,>B, A,>A, B,4 |] %16
V:3
 B,,>B,, B,,>B,, B,,2 B,,2 | B,,>B,, B,,>B,, B,,2 B,,2 | z4 F,2 F,2 | C,>C, C,>C, F,4 | %4
 B,,>B,, B,,>B,, B,,2 B,,2 | B,,>B,, B,,>B,, E,2 E,2 | E,>E, E,>E, F,2 F,2 | F,>F, F,>F, B,,4 | %8
 F,>F, F,>F, F,4 | B,,>B,, B,,>B,, B,,4 | E,>E, E,>E, C,2 C,2 | C,>C, C,>C, F,4 | %12
 B,,>B,, B,,>B,, B,,2 B,,2 | B,,>B,, B,,>B,, E,2 E,2 | E,>E, E,>E, F,2 F,2 | F,>F, F,>F, B,,4 |] %16

